X: 03071
T: RA'S HORNPIPE
C: Bob McQuillen 17 Mar 78
B: Bob's Note Book 03 #71
%R: hornpipe, reel
%D:1978
Z: 2020 John Chambers <jc:trillian.mit.edu>
M: 4/4	% no time signature in booklet
L: 1/8
K: Em
GA \
| BEEB, E2FG | AGFE D2GF | EB,EF GFGB | dBGB A2GA |
| BEEB, E2FG | AGFE D2GF | EB,EF GBBA | G2E2 E2  :|
|: GA \
| BedB edBA | BedB e2GA | BedB edBd | BGGB A2GA |
| BedB edBA | BedB e2de | gedB ABGA | B2E2 E2  :|
%%begintext align
%% For Ra Eldredge, with
%% love and Best Wishes
%% always from Mac
%%endtext

%%sep 1 1 500

%%sep 1 1 500

